img/icons/icon-watch.svg

<svg width="25" height="30" viewBox="0 0 25 30" fill="none" xmlns="http://www.w3.org/2000/svg">
<ellipse cx="18.2042" cy="9.32987" rx="1.0873" ry="1.08512" fill="white"/>
<ellipse cx="7.33112" cy="9.32987" rx="1.08731" ry="1.08512" fill="white"/>
<ellipse cx="7.33112" cy="22.3512" rx="1.08731" ry="1.08512" fill="white"/>
<ellipse cx="12.7677" cy="24.5215" rx="1.0873" ry="1.08512" fill="white"/>
<ellipse cx="4.06924" cy="15.7748" rx="1.08731" ry="1.08512" fill="white"/>
<ellipse cx="21.4661" cy="15.7748" rx="1.0873" ry="1.08512" fill="white"/>
<ellipse cx="18.2042" cy="22.3512" rx="1.0873" ry="1.08512" fill="white"/>
<mask id="path-8-inside-1_43522_91" fill="white">
<path fill-rule="evenodd" clip-rule="evenodd" d="M17.9215 27.0581C18.3298 26.8622 18.8226 26.9298 19.1385 27.2542L20.9644 29.1292C21.2319 29.4039 21.6734 29.4039 21.941 29.1292C22.1987 28.8645 22.1987 28.4427 21.941 28.1781L20.5843 26.7849C20.1584 26.3475 20.2228 25.6356 20.682 25.2333C23.3238 22.9195 25 19.4688 25 15.6145C25 8.6477 19.5235 3 12.7678 3C6.01218 3 0.535645 8.6477 0.535645 15.6145C0.535645 19.4288 2.17729 22.8477 4.77166 25.1608C5.22438 25.5644 5.28489 26.2708 4.86173 26.7054L3.42757 28.1781C3.16985 28.4427 3.16984 28.8645 3.42756 29.1291C3.69513 29.4039 4.13664 29.4039 4.40421 29.1292L6.28384 27.199C6.60245 26.8718 7.10039 26.8061 7.51021 27.0076C9.10297 27.7907 10.8858 28.229 12.7678 28.229C14.609 28.229 16.3553 27.8095 17.9215 27.0581ZM12.7678 26.8274C18.7728 26.8274 23.6409 21.8072 23.6409 15.6145C23.6409 9.42179 18.7728 4.40161 12.7678 4.40161C6.7628 4.40161 1.89478 9.42179 1.89478 15.6145C1.89478 21.8072 6.7628 26.8274 12.7678 26.8274ZM12.0083 15.298V11.5001V7.94092C12.0083 7.50942 12.3581 7.15963 12.7895 7.15963C13.221 7.15963 13.5708 7.50942 13.5708 7.94092V11.5001V15.298V15.8406V16.1226C13.5708 16.5661 13.2113 16.9257 12.7677 16.9257C12.3483 16.9257 12.0083 16.5857 12.0083 16.1663V15.8406V15.298Z"/>
</mask>
<path fill-rule="evenodd" clip-rule="evenodd" d="M17.9215 27.0581C18.3298 26.8622 18.8226 26.9298 19.1385 27.2542L20.9644 29.1292C21.2319 29.4039 21.6734 29.4039 21.941 29.1292C22.1987 28.8645 22.1987 28.4427 21.941 28.1781L20.5843 26.7849C20.1584 26.3475 20.2228 25.6356 20.682 25.2333C23.3238 22.9195 25 19.4688 25 15.6145C25 8.6477 19.5235 3 12.7678 3C6.01218 3 0.535645 8.6477 0.535645 15.6145C0.535645 19.4288 2.17729 22.8477 4.77166 25.1608C5.22438 25.5644 5.28489 26.2708 4.86173 26.7054L3.42757 28.1781C3.16985 28.4427 3.16984 28.8645 3.42756 29.1291C3.69513 29.4039 4.13664 29.4039 4.40421 29.1292L6.28384 27.199C6.60245 26.8718 7.10039 26.8061 7.51021 27.0076C9.10297 27.7907 10.8858 28.229 12.7678 28.229C14.609 28.229 16.3553 27.8095 17.9215 27.0581ZM12.7678 26.8274C18.7728 26.8274 23.6409 21.8072 23.6409 15.6145C23.6409 9.42179 18.7728 4.40161 12.7678 4.40161C6.7628 4.40161 1.89478 9.42179 1.89478 15.6145C1.89478 21.8072 6.7628 26.8274 12.7678 26.8274ZM12.0083 15.298V11.5001V7.94092C12.0083 7.50942 12.3581 7.15963 12.7895 7.15963C13.221 7.15963 13.5708 7.50942 13.5708 7.94092V11.5001V15.298V15.8406V16.1226C13.5708 16.5661 13.2113 16.9257 12.7677 16.9257C12.3483 16.9257 12.0083 16.5857 12.0083 16.1663V15.8406V15.298Z" fill="white"/>
<path d="M6.28384 27.199L9.14954 29.9896L6.28384 27.199ZM7.51021 27.0076L9.27505 23.418L7.51021 27.0076ZM4.40421 29.1292L1.53851 26.3385L4.40421 29.1292ZM3.42757 28.1781L6.29325 30.9687L3.42757 28.1781ZM20.5843 26.7849L17.7186 29.5756L20.5843 26.7849ZM20.682 25.2333L18.0465 22.2243L20.682 25.2333ZM4.77166 25.1608L2.10971 28.1464L4.77166 25.1608ZM4.86173 26.7054L1.99605 23.9147L4.86173 26.7054ZM21.941 28.1781L24.8067 25.3874L21.941 28.1781ZM20.9644 29.1292L23.8301 26.3385L20.9644 29.1292ZM19.1385 27.2542L16.2728 30.0449L19.1385 27.2542ZM17.9215 27.0581L16.1913 23.4516L17.9215 27.0581ZM16.2728 30.0449L18.0987 31.9198L23.8301 26.3385L22.0042 24.4636L16.2728 30.0449ZM24.8067 25.3874L23.45 23.9942L17.7186 29.5756L19.0753 30.9688L24.8067 25.3874ZM23.3175 28.2423C26.8075 25.1855 29 20.6466 29 15.6145H21C21 18.2911 19.8401 20.6534 18.0465 22.2243L23.3175 28.2423ZM29 15.6145C29 6.5555 21.8478 -1 12.7678 -1V7C17.1992 7 21 10.7399 21 15.6145H29ZM12.7678 -1C3.68789 -1 -3.46436 6.5555 -3.46436 15.6145H4.53564C4.53564 10.7399 8.33647 7 12.7678 7V-1ZM-3.46436 15.6145C-3.46436 20.5943 -1.31704 25.0912 2.10971 28.1464L7.43361 22.1752C5.67162 20.6042 4.53564 18.2633 4.53564 15.6145H-3.46436ZM1.99605 23.9147L0.561883 25.3874L6.29325 30.9687L7.72742 29.496L1.99605 23.9147ZM7.26991 31.9198L9.14954 29.9896L3.41814 24.4083L1.53851 26.3385L7.26991 31.9198ZM5.74538 30.5972C7.87221 31.6429 10.2573 32.229 12.7678 32.229V24.229C11.5143 24.229 10.3337 23.9385 9.27505 23.418L5.74538 30.5972ZM12.7678 32.229C15.2236 32.229 17.5598 31.6681 19.6517 30.6645L16.1913 23.4516C15.1508 23.9508 13.9944 24.229 12.7678 24.229V32.229ZM12.7678 30.8274C21.0971 30.8274 27.6409 23.8994 27.6409 15.6145H19.6409C19.6409 19.715 16.4485 22.8274 12.7678 22.8274V30.8274ZM27.6409 15.6145C27.6409 7.32959 21.0971 0.401611 12.7678 0.401611V8.40161C16.4485 8.40161 19.6409 11.514 19.6409 15.6145H27.6409ZM12.7678 0.401611C4.43851 0.401611 -2.10522 7.32959 -2.10522 15.6145H5.89478C5.89478 11.514 9.08709 8.40161 12.7678 8.40161V0.401611ZM-2.10522 15.6145C-2.10522 23.8994 4.43851 30.8274 12.7678 30.8274V22.8274C9.08709 22.8274 5.89478 19.715 5.89478 15.6145H-2.10522ZM9.57083 15.298V15.8406H17.5708V15.298H9.57083ZM9.57083 15.8406V16.1226H17.5708V15.8406H9.57083ZM16.0083 16.1663V15.8406H8.00826V16.1663H16.0083ZM16.0083 15.8406V15.298H8.00826V15.8406H16.0083ZM16.0083 15.298V11.5001H8.00826V15.298H16.0083ZM16.0083 11.5001V7.94092H8.00826V11.5001H16.0083ZM9.57083 7.94092V11.5001H17.5708V7.94092H9.57083ZM9.57083 11.5001V15.298H17.5708V11.5001H9.57083ZM12.7895 3.15963C10.1489 3.15963 8.00826 5.30029 8.00826 7.94092H16.0083C16.0083 9.71856 14.5672 11.1596 12.7895 11.1596V3.15963ZM9.57083 16.1226C9.57083 14.357 11.0021 12.9257 12.7677 12.9257V20.9257C15.4204 20.9257 17.5708 18.7753 17.5708 16.1226H9.57083ZM9.14954 29.9896C8.15685 31.009 6.7521 31.0922 5.74538 30.5972L9.27505 23.418C7.44868 22.52 5.04805 22.7346 3.41814 24.4083L9.14954 29.9896ZM0.561854 31.9198C2.39966 33.807 5.4321 33.807 7.26991 31.9198L1.53851 26.3385C2.84118 25.0008 4.99061 25.0008 6.29327 26.3385L0.561854 31.9198ZM0.561883 25.3874C-1.20825 27.2051 -1.20826 30.1021 0.561854 31.9198L6.29327 26.3385C7.54795 27.6269 7.54794 29.6803 6.29325 30.9687L0.561883 25.3874ZM23.45 23.9942C24.7927 25.3731 24.394 27.2994 23.3175 28.2423L18.0465 22.2243C16.0515 23.9717 15.524 27.3219 17.7186 29.5756L23.45 23.9942ZM12.7895 11.1596C11.0119 11.1596 9.57083 9.71856 9.57083 7.94092H17.5708C17.5708 5.30028 15.4302 3.15963 12.7895 3.15963V11.1596ZM2.10971 28.1464C1.0463 27.1983 0.662631 25.2839 1.99605 23.9147L7.72742 29.496C9.90715 27.2577 9.40246 23.9306 7.43361 22.1752L2.10971 28.1464ZM24.8067 31.9198C26.5768 30.1021 26.5768 27.2051 24.8067 25.3874L19.0753 30.9688C17.8206 29.6803 17.8206 27.6269 19.0753 26.3385L24.8067 31.9198ZM18.0987 31.9198C19.9365 33.807 22.9689 33.807 24.8067 31.9198L19.0753 26.3385C20.378 25.0008 22.5274 25.0008 23.8301 26.3385L18.0987 31.9198ZM12.7677 12.9257C14.5574 12.9257 16.0083 14.3765 16.0083 16.1663H8.00826C8.00826 18.7948 10.1391 20.9257 12.7677 20.9257V12.9257ZM22.0042 24.4636C20.3881 22.804 18.0117 22.5783 16.1913 23.4516L19.6517 30.6645C18.648 31.1461 17.257 31.0555 16.2728 30.0449L22.0042 24.4636Z" fill="white" mask="url(#path-8-inside-1_43522_91)"/>
<rect x="12" y="4" width="4" height="1.5" transform="rotate(-90 12 4)" fill="white"/>
<rect x="5" width="15.5" height="1.5" rx="0.75" fill="white"/>
</svg>

<svg width="25" height="30" fill="none" xmlns="http://www.w3.org/2000/svg"><ellipse cx="18.204" cy="9.33" rx="1.087" ry="1.085" fill="#fff"/><ellipse cx="7.331" cy="9.33" rx="1.087" ry="1.085" fill="#fff"/><ellipse cx="7.331" cy="22.351" rx="1.087" ry="1.085" fill="#fff"/><ellipse cx="12.768" cy="24.521" rx="1.087" ry="1.085" fill="#fff"/><ellipse cx="4.069" cy="15.775" rx="1.087" ry="1.085" fill="#fff"/><ellipse cx="21.466" cy="15.775" rx="1.087" ry="1.085" fill="#fff"/><ellipse cx="18.204" cy="22.351" rx="1.087" ry="1.085" fill="#fff"/><mask id="a" fill="#fff"><path fill-rule="evenodd" clip-rule="evenodd" d="M17.922 27.058a1.058 1.058 0 011.216.196l1.826 1.875a.682.682 0 00.977-.95l-1.357-1.394c-.426-.438-.361-1.15.098-1.552C23.324 22.92 25 19.47 25 15.614 25 8.648 19.523 3 12.768 3 6.012 3 .536 8.648.536 15.614c0 3.815 1.641 7.234 4.236 9.547.452.403.513 1.11.09 1.544l-1.434 1.473a.682.682 0 10.976.951l1.88-1.93a1.058 1.058 0 011.226-.191 11.878 11.878 0 005.258 1.221c1.841 0 3.587-.42 5.154-1.17zm-5.154-.23c6.005 0 10.873-5.02 10.873-11.213S18.773 4.402 12.768 4.402c-6.005 0-10.873 5.02-10.873 11.212 0 6.193 4.868 11.213 10.873 11.213zm-.76-11.53V7.94a.781.781 0 111.563 0v8.183c0 .443-.36.803-.803.803a.76.76 0 01-.76-.76v-.868z"/></mask><path fill-rule="evenodd" clip-rule="evenodd" d="M17.922 27.058a1.058 1.058 0 011.216.196l1.826 1.875a.682.682 0 00.977-.95l-1.357-1.394c-.426-.438-.361-1.15.098-1.552C23.324 22.92 25 19.47 25 15.614 25 8.648 19.523 3 12.768 3 6.012 3 .536 8.648.536 15.614c0 3.815 1.641 7.234 4.236 9.547.452.403.513 1.11.09 1.544l-1.434 1.473a.682.682 0 10.976.951l1.88-1.93a1.058 1.058 0 011.226-.191 11.878 11.878 0 005.258 1.221c1.841 0 3.587-.42 5.154-1.17zm-5.154-.23c6.005 0 10.873-5.02 10.873-11.213S18.773 4.402 12.768 4.402c-6.005 0-10.873 5.02-10.873 11.212 0 6.193 4.868 11.213 10.873 11.213zm-.76-11.53V7.94a.781.781 0 111.563 0v8.183c0 .443-.36.803-.803.803a.76.76 0 01-.76-.76v-.868z" fill="#fff"/><path d="M6.284 27.199l2.866 2.79-2.866-2.79zm1.226-.191l1.765-3.59-1.765 3.59zm-3.106 2.121L1.54 26.34l2.865 2.79zm-.976-.95l2.865 2.79-2.865-2.79zm17.156-1.394l-2.865 2.79 2.865-2.79zm.098-1.552l-2.635-3.009 2.635 3.01zm-15.91-.072L2.11 28.146l2.662-2.985zm.09 1.544l-2.866-2.79 2.866 2.79zm17.079 1.473l2.866-2.79-2.866 2.79zm-.977.951l2.866-2.79-2.866 2.79zm-1.825-1.875l-2.866 2.79 2.866-2.79zm-1.217-.196l-1.73-3.606 1.73 3.606zm-1.65 2.987L18.1 31.92l5.731-5.582-1.826-1.874-5.731 5.58zm8.535-4.658l-1.357-1.393-5.731 5.582 1.356 1.393 5.732-5.582zm-1.49 2.855C26.807 25.186 29 20.647 29 15.614h-8c0 2.677-1.16 5.04-2.953 6.61l5.27 6.018zM29 15.614C29 6.556 21.848-1 12.768-1v8C17.199 7 21 10.74 21 15.614h8zM12.768-1C3.688-1-3.464 6.556-3.464 15.614h8C4.536 10.74 8.336 7 12.768 7v-8zM-3.464 15.614c0 4.98 2.147 9.477 5.574 12.532l5.324-5.97c-1.762-1.572-2.898-3.913-2.898-6.561h-8zm5.46 8.3L.562 25.388l5.731 5.582 1.434-1.473-5.73-5.581zM7.27 31.92l1.88-1.93-5.732-5.582-1.88 1.93L7.27 31.92zm-1.525-1.323a15.878 15.878 0 007.023 1.632v-8a7.878 7.878 0 01-3.493-.811l-3.53 7.18zm7.023 1.632c2.456 0 4.792-.56 6.884-1.564l-3.46-7.213a7.886 7.886 0 01-3.424.777v8zm0-1.402c8.33 0 14.873-6.928 14.873-15.213h-8c0 4.101-3.192 7.213-6.873 7.213v8zM27.64 15.614C27.64 7.33 21.097.402 12.768.402v8c3.68 0 6.873 3.112 6.873 7.213h8zM12.768.402C4.438.402-2.105 7.33-2.105 15.615h8c0-4.101 3.192-7.213 6.873-7.213v-8zM-2.105 15.615c0 8.284 6.544 15.212 14.873 15.212v-8c-3.68 0-6.873-3.112-6.873-7.213h-8zm11.676-.317v.543h8v-.543h-8zm0 .543v.282h8v-.282h-8zm6.437.325v-.325h-8v.325h8zm0-.325v-.543h-8v.543h8zm0-.543V11.5h-8v3.798h8zm0-3.798V7.94h-8v3.56h8zM9.571 7.94v3.56h8V7.94h-8zm0 3.56v3.798h8V11.5h-8zm3.219-8.34a4.781 4.781 0 00-4.782 4.78h8a3.219 3.219 0 01-3.218 3.22v-8zM9.57 16.123a3.197 3.197 0 013.198-3.197v8a4.803 4.803 0 004.803-4.803h-8zM9.15 29.99a2.943 2.943 0 01-3.405.607l3.53-7.179c-1.826-.898-4.227-.683-5.857.99L9.15 29.99zM.562 31.92a4.682 4.682 0 006.708 0l-5.731-5.582a3.318 3.318 0 014.754 0L.562 31.92zm0-6.533a4.682 4.682 0 000 6.533l5.731-5.582a3.318 3.318 0 010 4.63l-5.731-5.58zm22.888-1.393c1.343 1.38.944 3.305-.133 4.248l-5.27-6.018c-1.995 1.748-2.523 5.098-.328 7.352l5.731-5.582zM12.79 11.16a3.219 3.219 0 01-3.22-3.22h8a4.78 4.78 0 00-4.78-4.78v8zM2.11 28.146c-1.064-.948-1.447-2.862-.114-4.231l5.731 5.581c2.18-2.238 1.675-5.565-.293-7.32l-5.324 5.97zm22.697 3.774a4.682 4.682 0 000-6.533l-5.732 5.582a3.318 3.318 0 010-4.63l5.732 5.58zm-6.708 0a4.682 4.682 0 006.708 0l-5.732-5.582a3.318 3.318 0 014.755 0L18.1 31.92zm-5.331-18.994a3.24 3.24 0 013.24 3.24h-8a4.76 4.76 0 004.76 4.76v-8zm9.236 11.538c-1.616-1.66-3.992-1.886-5.813-1.012l3.46 7.212a2.943 2.943 0 01-3.378-.62l5.731-5.58z" fill="#fff" mask="url(#a)"/><path fill="#fff" d="M12 4V0h1.5v4z"/><rect x="5" width="15.5" height="1.5" rx=".75" fill="#fff"/></svg>
